svg/u1f480.svg

<svg viewBox="0 0 128 128" xmlns="http://www.w3.org/2000/svg">
  <defs>
    <radialGradient id="SVGID_1_" cx="63.8872" cy="69.121966" gradientTransform="matrix(1 0 0 1.0839 0 0)" gradientUnits="userSpaceOnUse" r="64.9356">
      <stop offset="0.3956" stop-color="#E1E7EA"/>
      <stop offset="0.9934" stop-color="#D6E1E6"/>
    </radialGradient>
  </defs>
  <path d="M111.79,67.58 C112.36,64.17 114.72,52.03 112.57,40.11 C111.2,32.52 106.46,22.61 101.17,17.6 C90.96,7.93 76.74,4 63.66,4 C50.58,4 37.07,7.93 26.86,17.6 C21.57,22.61 16.83,32.53 15.46,40.11 C13.31,52.03 15.67,64.17 16.24,67.58 C17.01,72.23 14.97,77.37 14.57,82 C14.14,87.04 16.52,90.95 20.78,93.72 C24.33,96.03 28.47,97.25 32.31,99.04 C36.88,101.17 32.73,108.86 34.42,112.74 C35.27,114.7 37.13,116.05 39.05,117 C41.49,118.22 44.3,118.98 46.95,118.31 C46.55,118.41 47.71,120.74 49.24,121.69 C50.64,122.55 52.37,123.43 53.98,123.78 C57.18,124.48 60.35,123.3 62.33,122.28 C63.41,121.72 64.67,121.72 65.74,122.28 C67.72,123.3 70.89,124.48 74.09,123.78 C76.5,123.25 78.65,121.82 80.19,119.95 C80.91,119.07 82.03,118.59 83.16,118.67 C86.52,118.89 91.66,117.52 93.89,112.45 C95.14,109.63 93.88,106.31 94.71,103.36 C96.12,98.36 101.04,97.12 105,94.79 C110.25,91.71 113.35,88.26 113.49,83.4 C113.63,78.24 111.13,71.57 111.79,67.58 Z" fill="url(#SVGID_1_)"/>
  <path d="M43.385,50.879 C50.047,52.664 53.857,60.053 51.893,67.383 C49.929,74.713 42.936,79.207 36.273,77.422 C29.61,75.637 25.801,68.248 27.765,60.918 C29.728,53.588 36.722,49.094 43.385,50.879 Z" fill="#424242"/>
  <path d="M100.26,60.916 C102.224,68.246 98.415,75.635 91.752,77.42 C85.09,79.206 78.096,74.711 76.132,67.381 C74.168,60.052 77.978,52.663 84.64,50.877 C91.303,49.092 98.297,53.587 100.26,60.916 Z" fill="#424242"/>
  <path d="M55.98,86.71 C55.98,82.28 59.57,71.3 64.01,71.3 C68.45,71.3 72.04,82.27 72.04,86.71 C72.04,95.72 64.01,89.58 64.01,89.58 C64.01,89.58 55.98,96.24 55.98,86.71 Z" fill="#424242"/>
  <path d="M42.63,118.43 C41.43,118.2 40.29,117.83 39.27,117.08 C40.12,116.88 40.97,116.66 41.75,116.28 C43.69,115.31 43.64,113.75 44.07,111.83 C44.44,110.15 44.8,108.47 45.23,106.8 C45.52,105.68 46.26,104.61 47.41,104.77 C48.85,104.97 48.99,105.99 48.75,107.54 C48.52,108.98 46.78,118.47 46.78,118.48 C46.7,118.91 43.81,118.62 43.53,118.58 C43.23,118.54 42.93,118.49 42.63,118.43 Z" fill="#8ABFD1"/>
  <path d="M86.04,118.43 C87.24,118.2 88.38,117.83 89.4,117.08 C88.55,116.88 87.7,116.66 86.92,116.28 C84.98,115.31 85.03,113.75 84.6,111.83 C84.23,110.15 83.87,108.47 83.44,106.8 C83.15,105.68 82.41,104.61 81.26,104.77 C79.82,104.97 79.68,105.99 79.92,107.54 C80.15,108.98 81.89,118.47 81.89,118.48 C81.97,118.91 84.86,118.62 85.14,118.58 C85.44,118.54 85.74,118.49 86.04,118.43 Z" fill="#8ABFD1"/>
  <path d="M59.47,123.45 C59.47,123.45 61.74,120.39 61.82,118.3 C61.97,114.57 62.18,109.53 62.18,106.61 C62.18,105.45 62.88,104.56 64.05,104.56 C65.21,104.56 65.86,105.34 65.86,106.5 C65.86,106.55 66.13,113.33 66.13,118.05 C66.13,120.23 68.57,123.44 68.57,123.44 C67.57,122.99 65.82,122.12 64.02,122.2 C61.74,122.31 59.47,123.45 59.47,123.45 Z" fill="#8ABFD1"/>
</svg>

<svg viewBox="0 0 128 128" xmlns="http://www.w3.org/2000/svg">
  <g>
    <radialGradient id="SVGID_1_" cx="63.8872" cy="74.9249" gradientTransform="matrix(1 0 0 1.0839 0 -6.2898)" gradientUnits="userSpaceOnUse" r="64.9356">
      <stop offset="0.3956" stop-color="#E1E7EA"/>
      <stop offset="0.9934" stop-color="#D6E1E6"/>
    </radialGradient>
    <path d="M111.79,67.58c0.57-3.41,2.93-15.55,0.78-27.47c-1.37-7.59-6.11-17.5-11.4-22.51 C90.96,7.93,76.74,4,63.66,4s-26.59,3.93-36.8,13.6c-5.29,5.01-10.03,14.93-11.4,22.51c-2.15,11.92,0.21,24.06,0.78,27.47 c0.77,4.65-1.27,9.79-1.67,14.42c-0.43,5.04,1.95,8.95,6.21,11.72c3.55,2.31,7.69,3.53,11.53,5.32c4.57,2.13,0.42,9.82,2.11,13.7 c0.85,1.96,2.71,3.31,4.63,4.26c2.44,1.22,5.25,1.98,7.9,1.31c-0.4,0.1,0.76,2.43,2.29,3.38c1.4,0.86,3.13,1.74,4.74,2.09 c3.2,0.7,6.37-0.48,8.35-1.5c1.08-0.56,2.34-0.56,3.41,0c1.98,1.02,5.15,2.2,8.35,1.5c2.41-0.53,4.56-1.96,6.1-3.83 c0.72-0.88,1.84-1.36,2.97-1.28c3.36,0.22,8.5-1.15,10.73-6.22c1.25-2.82-0.01-6.14,0.82-9.09c1.41-5,6.33-6.24,10.29-8.57 c5.25-3.08,8.35-6.53,8.49-11.39C113.63,78.24,111.13,71.57,111.79,67.58z" fill="url(#SVGID_1_)"/>
    <ellipse cx="39.83" cy="64.15" fill="#424242" rx="13.74" ry="12.49" transform="matrix(0.2588 -0.9659 0.9659 0.2588 -32.4418 86.0203)"/>
    <ellipse cx="88.2" cy="64.15" fill="#424242" rx="12.49" ry="13.74" transform="matrix(0.9659 -0.2588 0.2588 0.9659 -13.598 25.0125)"/>
    <path d="M55.98,86.71c0-4.43,3.59-15.41,8.03-15.41s8.03,10.97,8.03,15.41c0,9.01-8.03,2.87-8.03,2.87 S55.98,96.24,55.98,86.71z" fill="#424242"/>
    <path d="M42.63,118.43c-1.2-0.23-2.34-0.6-3.36-1.35c0.85-0.2,1.7-0.42,2.48-0.8 c1.94-0.97,1.89-2.53,2.32-4.45c0.37-1.68,0.73-3.36,1.16-5.03c0.29-1.12,1.03-2.19,2.18-2.03c1.44,0.2,1.58,1.22,1.34,2.77 c-0.23,1.44-1.97,10.93-1.97,10.94c-0.08,0.43-2.97,0.14-3.25,0.1C43.23,118.54,42.93,118.49,42.63,118.43z" fill="#8ABFD1"/>
    <path d="M86.04,118.43c1.2-0.23,2.34-0.6,3.36-1.35c-0.85-0.2-1.7-0.42-2.48-0.8 c-1.94-0.97-1.89-2.53-2.32-4.45c-0.37-1.68-0.73-3.36-1.16-5.03c-0.29-1.12-1.03-2.19-2.18-2.03c-1.44,0.2-1.58,1.22-1.34,2.77 c0.23,1.44,1.97,10.93,1.97,10.94c0.08,0.43,2.97,0.14,3.25,0.1C85.44,118.54,85.74,118.49,86.04,118.43z" fill="#8ABFD1"/>
    <path d="M59.47,123.45c0,0,2.27-3.06,2.35-5.15c0.15-3.73,0.36-8.77,0.36-11.69c0-1.16,0.7-2.05,1.87-2.05 c1.16,0,1.81,0.78,1.81,1.94c0,0.05,0.27,6.83,0.27,11.55c0,2.18,2.44,5.39,2.44,5.39c-1-0.45-2.75-1.32-4.55-1.24 C61.74,122.31,59.47,123.45,59.47,123.45z" fill="#8ABFD1"/>
  </g>
</svg>
